X:5796
T:Saxaford
O:england
M:4/4
L:1/8
C:Tom Anderson
S:Brendan McGlinchey
K:C
G,2|C2EC B,DGF|EccB cGEG|FAdF EGcE|FEDC B,G,A,B,|C2EC \
B,DGF|EccB cGEG|FAdc BGFD|DCB,G, C3::f|ge (3eee fd (3ddd|\
cedB cGEG|FAdF EGce|fed^c defa|ge (3eee fd (3ddd|cedB \
cGEG|FAdc BGFD|DCCB, C2:|


